!!!!SEGMENT: pl-kk--kk-i-313--002_anonim--haec-est-virgo.krn
!!!cenid: 17xx:2114
!!!COM: Anonim
!!!COM-rismID: pe30004985
!!!CDT:
!!!CNT:
!!!OTL: Haec est Virgo
!!!PDT:
!!!AGN: Sacred
!!!SMS-siglum: PL-Kk
!!!SMS-shelfmark: Kk.I.313
!!!SMS-shelfwork: 002 W
!!!SMS-variant:
!!!SMS-altvar:
!!!NIFC-rismSourceID: 1001147271
!!!NIFC-islandoraID: pl-kk:5275
!!!URL-pdf-islandora: https://repozytorium.nifc.pl/islandora/object/pl-kk%3A5275/datastream/PDF/view
!!!URL-scan: https://polish.musicsources.pl/pl/lokalizacje/galeria/rekopisy/5932 @EN{Scan on Polish Music Herritage in Open Access Website} @PL{Skany w portalu Dziedzictwo Muzyki Polskiej w otwartym dostępie}
!!!ONB-nifc: UWAGA: utwory w zbiorze: 1. Veni sponsa,< 2. Haec est Virgo,< 3. Sub tuum praesidium
!!!AIN: 1 bass
!!!key:
**kern	**text
*Ibass	*
*I"Basso	*
*I'B.	*
*clefF4	*
*k[b-]	*
*b-:	*
*M2/1	*
*met(c|)	*
=1	=1
!LO:TX:t=P:problem=kreska pseudotaktowa	!
!LO:TX:t=P:znaki:problem= nad BB- dodany B-	!
00r	.
=2-	=2-
.	.
=3-	=3-
1F\	Haec
1D\,<	est
=4-	=4-
1E-X\	Vir-
2C,</	-go
1F\	Sa-
=5-	=5-
.	.
*2\right	*
2E-X\	.
!LO:TX:t=P:problem=kreska pseudotaktowa	!
1D\	.
=6-	=6-
2.C/	.
4C/	-pi-
2BB-,</	-ens
4BB-/	Sa-
4C/	.
=7-	=7-
2D\	.
2F\	.
2.C/	.
4C/	-pi-
=8-	=8-
2FF,</	-ens
1F\	quam
2En\	Do-
=9-	=9-
2F\	-mi-
!LO:TX:t=P:problem=kreska pseudotaktowa	!
2G\	.
!LO:LB:g=original	!
2C,</	-nus
2F\	vi-
=10-	=10-
2.BB-/	.
4C/	-gi-
(2D\	-lan-
!LO:TX:t=P:problem=kreska pseudotaktowa	!
2F\)	.
=11-	=11-
2C,</	-tem
2F\	in-
!LO:TX:t=P:problem=kreska pseudotaktowa	!
1C/	-ve-
=12-	=12-
2FF,</	-nit
2F\	vi-
2.D\	.
4D\	-gi-
=13-	=13-
1C/	-lan-
2FF,</	-tem
2F\	in-
=14-	=14-
0C/	-ve-
=15-	=15-
2FF/	-nit.
!LO:TX:t=P:problem=kreska pseudotaktowa	!
2r	.
0r	.
=16-	=16-
.	.
1r	.
=17-	=17-
1.F\	quae
2En\	ac-
=18-	=18-
1D\	-ce-
!LO:TX:t=P:problem=kreska pseudotaktowa	!
1C/	-ptis
=19-	=19-
*lig	*
!LO:LB:g=original	!
1BB-/	Lam-
1F\	.
*Xlig	*
=20-	=20-
1D\	.
4C/	.
4BB-/	.
4AA/	.
!LO:TX:t=P:problem=kreska pseudotaktowa	!
4GG/	.
=21-	=21-
2FF/	.
2F\	-pa-
2.C/	.
!LO:TX:t=P:problem=kreska pseudotaktowa	!
4C/	-di-
=22-	=22-
2FF,</	-b(us)
2F\	Lam-
2G\	.
!LO:TX:t=P:problem=kreska pseudotaktowa	!
2C/	.
=23-	=23-
2G\	-pa-
2GG/	-di-
!LO:TX:t=P:problem=kreska pseudotaktowa	!
1C/	-b(us)
=24-	=24-
!LO:TX:t=P:problem=kreska pseudotaktowa	!
!LO:TX:b:t=Vertat	!
00r	.
=25-	=25-
.	.
=26-	=26-
!LO:PB:g=original	!
1F\	sum-
!LO:TX:t=P:problem=kreska pseudotaktowa	!
1D\	-psit
=27-	=27-
1E-X\	se-
2C,</	-cum
1F\	O-
=28-	=28-
.	.
!LO:TX:t=P:problem=kreska pseudotaktowa	!
2E-X\	.
1D\	.
=29-	=29-
2.C/	.
!LO:TX:t=P:problem=kreska pseudotaktowa	!
4C/	-le-
2BB-,</	-um
4BB-/	o-
4C/	.
=30-	=30-
2D\	.
!LO:TX:t=P:problem=kreska pseudotaktowa	!
2F\	.
2.C/	.
4C/	-le-
=31-	=31-
2FF,</	-um
1F\	quae
!LO:TX:t=P:problem=kreska pseudotaktowa	!
2En\	ac-
=32-	=32-
2F\	-ce-
2G\	.
2C,</	-ptis
*custos:BB	*
!LO:TX:t=P:problem=kreska pseudotaktowa	!
2F\	Lam-
=33-	=33-
!LO:LB:g=original	!
2.BB-/	.
!LO:TX:t=P:problem=kreska pseudotaktowa	!
4C/	.
2D\	.
2F\	.
=34-	=34-
2C/	.
2F\	.
2.C/	-pa-
!LO:TX:t=P:problem=kreska pseudotaktowa	!
4C/	-di-
=35-	=35-
2FF,</	-b(us)
!LO:TX:t=P:problem=kreska pseudotaktowa	!
2F\	sum-
2D\	.
!LO:TX:t=P:problem=kreska pseudotaktowa	!
2D\	.
=36-	=36-
2C/	.
2C,</	-psit
2FF/	se-
2F\	-cu(m)
=37-	=37-
1.C/	o-
!LO:TX:t=P:problem=kreska pseudotaktowa	!
2C/	-le-
=38-	=38-
2FF,</	-um
!LO:TX:t=P:problem=kreska pseudotaktowa	!
2F,<\	et
2G\	ve-
!LO:TX:t=P:problem=kreska pseudotaktowa	!
2A\	-ni-
=39-	=39-
2B-\	-en-
!LO:TX:t=P:problem=kreska pseudotaktowa	!
2F\	-te
(2E\	Do-
!LO:TX:t=P:problem=kreska pseudotaktowa	!
2F\)	.
=40-	=40-
!LO:LB:g=original	!
2D/	.
!LO:TX:t=P:problem=kreska pseudotaktowa	!
2C/	.
2G\	.
2C/	.
=41-	=41-
2G\	-mi-
!LO:TX:t=P:problem=kreska pseudotaktowa	!
2GG/	.
2C,</	-no
4A\	Ve-
!LO:TX:t=P:problem=kreska pseudotaktowa	!
4G\	.
=42-	=42-
2F\	-ni-
!LO:TX:t=P:problem=kreska pseudotaktowa	!
2B-\	-en-
2c\	-te
!LO:TX:t=P:problem=kreska pseudotaktowa	!
2F\	Do-
=43-	=43-
2c\	-mi-
!LO:TX:t=P:problem=kreska pseudotaktowa	!
2C/	.
!LO:TX:a:t=Lente	!
2F\	-no
!LO:TX:t=P:problem=kreska pseudotaktowa	!
2r	.
=44-	=44-
0r	.
=45-	=45-
2r	.
4C/	in-
!LO:TX:t=P:problem=kreska pseudotaktowa	!
4C/	-tro-
2D\	-i-
4D\	-vit
!LO:TX:t=P:problem=kreska pseudotaktowa	!
4D\	cum
=46-	=46-
(4C/	e-
4D/)	.
4E,</	-o
!LO:TX:t=P:problem=kreska pseudotaktowa	!
4C/	ad
4F\	nu-
4F\	-pti-
4F,<\	-as
!LO:TX:t=P:problem=kreska pseudotaktowa	!
4F\	ad
=47-	=47-
!LO:LB:g=original	!
2F\	nu-
!LO:TX:t=P:problem=kreska pseudotaktowa	!
2E\	-pti-
2F,<\	-as
4F\	in-
4F\	-tro-
=48-	=48-
2E\	-i-
4E,<\	-vit
!LO:TX:t=P:problem=kreska pseudotaktowa	!
4E\	ad
2F\	nu-
4G\	-pti-
!LO:TX:t=P:problem=kreska pseudotaktowa	!
4GG/	.
=49-	=49-
2C/	-as
!LO:TX:t=P:problem=kreska pseudotaktowa	!
2r	.
!LO:TX:t=P:problem=kreska pseudotaktowa	!
00r	.
=50-	=50-
.	.
=51-	=51-
.	.
(4F\	in-
4G\)	.
(4F\	-tro-
!LO:TX:t=P:problem=kreska pseudotaktowa	!
4E-X\)	.
=52-	=52-
(4D/	-i-
4E-X/	.
4D/)	.
!LO:TX:t=P:problem=kreska pseudotaktowa	!
4C/	.
2BB-/	.
!LO:TX:t=P:problem=kreska pseudotaktowa	!
2B-,<\	-vit
=53-	=53-
1B-\	et
4c\	in-
4d\	.
4c\	-tro-
!LO:TX:t=P:problem=kreska pseudotaktowa	!
4B-\	.
=54-	=54-
!LO:LB:g=original	!
4A\	-i-
4B-\	.
4A\	.
4G\	.
1F\	.
=55-	=55-
2F,<\	-vit
2B-\	cum
2G\	e-
!LO:TX:t=P:problem=kreska pseudotaktowa	!
2c,<\	-o
=56-	=56-
(2A\	ad
!LO:TX:t=P:problem=kreska pseudotaktowa	!
2F\)	.
(2B-\	nu-
!LO:TX:t=P:problem=kreska pseudotaktowa	!
2F\)	.
=57-	=57-
2c\	-pti-
!LO:TX:t=P:problem=kreska pseudotaktowa	!
2C/	.
2F,<\	-as
!LO:TX:t=P:problem=kreska pseudotaktowa	!
2F\	ad
=58-	=58-
1.B-\	nu-
2B-\	-pti-
=59-	=59-
0F\;	-as.
==	==
*-	*-
!!!RDF**kern: > = above
!!!RDF**kern: < = below
!!!EED: Andrzej Borzym
!!!EEV: 2021-04-08
!!!ENC: Katarzyna Serwa
!!!END: 2021-03-15
